src/imagens/header/icon.whats.svg

<svg width="25" height="29" viewBox="0 0 25 29" fill="none" xmlns="http://www.w3.org/2000/svg">
<g filter="url(#filter0_i_135_524)">
<path d="M2.10577 22.6681L10.6134 27.3473C11.8226 28.0124 13.2893 28.0072 14.4937 27.3335L22.8252 22.6735C24.0894 21.9664 24.8726 20.631 24.8726 19.1825L24.8726 9.26297C24.8726 7.81442 24.0895 6.47906 22.8252 5.77194L14.4937 1.11194C13.2893 0.438274 11.8226 0.433046 10.6134 1.09811L2.10577 5.77731C0.82758 6.48032 0.0334473 7.82341 0.0334473 9.28217L0.0334473 19.1633C0.0334473 20.622 0.827579 21.9651 2.10577 22.6681Z" fill="url(#paint0_linear_135_524)"/>
</g>
<path d="M18.3394 14.2301C18.3394 17.2568 15.867 19.7103 12.8166 19.7103C11.8482 19.7103 10.9385 19.4628 10.147 19.0284L7.08936 20L8.08623 17.0598C7.58336 16.234 7.29373 15.2655 7.29373 14.2301C7.29373 11.2035 9.76636 8.75 12.8166 8.75C15.8672 8.75 18.3394 11.2035 18.3394 14.2301ZM12.8166 9.62275C10.2561 9.62275 8.17336 11.6896 8.17336 14.2301C8.17336 15.2383 8.50198 16.1719 9.05786 16.9314L8.47773 18.6425L10.2621 18.0754C10.9952 18.5568 11.8735 18.8375 12.8167 18.8375C15.3769 18.8375 17.46 16.7709 17.46 14.2304C17.46 11.6899 15.377 9.62275 12.8166 9.62275ZM15.6055 15.4923C15.5714 15.4364 15.4812 15.4026 15.346 15.3355C15.2105 15.2684 14.5447 14.9433 14.421 14.8986C14.2969 14.8539 14.2064 14.8314 14.1162 14.9658C14.0261 15.1003 13.7666 15.4026 13.6875 15.4923C13.6085 15.5821 13.5296 15.5934 13.3941 15.5261C13.2589 15.459 12.8227 15.317 12.3056 14.8595C11.9032 14.5035 11.6315 14.064 11.5525 13.9294C11.4736 13.795 11.5442 13.7224 11.6119 13.6555C11.6729 13.5953 11.7474 13.4986 11.815 13.4203C11.8829 13.3418 11.9054 13.2859 11.9502 13.1961C11.9956 13.1065 11.973 13.0281 11.939 12.9608C11.9052 12.8936 11.6342 12.2326 11.5215 11.9636C11.4087 11.6949 11.2961 11.7396 11.217 11.7396C11.1381 11.7396 11.0477 11.7284 10.9575 11.7284C10.8672 11.7284 10.7205 11.762 10.5964 11.8964C10.4724 12.0309 10.1227 12.3559 10.1227 13.0168C10.1227 13.6778 10.6076 14.3164 10.6755 14.4059C10.7431 14.4954 11.6117 15.8959 12.988 16.4338C14.3644 16.9714 14.3644 16.792 14.6126 16.7695C14.8606 16.7471 15.4134 16.4446 15.5266 16.1311C15.6391 15.8171 15.6391 15.5483 15.6055 15.4923Z" fill="#0D0D0D"/>
<defs>
<filter id="filter0_i_135_524" x="0.0334473" y="0.603027" width="25.2566" height="27.6567" filterUnits="userSpaceOnUse" color-interpolation-filters="sRGB">
<feFlood flood-opacity="0" result="BackgroundImageFix"/>
<feBlend mode="normal" in="SourceGraphic" in2="BackgroundImageFix" result="shape"/>
<feColorMatrix in="SourceAlpha" type="matrix" values="0 0 0 0 0 0 0 0 0 0 0 0 0 0 0 0 0 0 127 0" result="hardAlpha"/>
<feOffset dx="0.417465" dy="0.417465"/>
<feGaussianBlur stdDeviation="0.626197"/>
<feComposite in2="hardAlpha" operator="arithmetic" k2="-1" k3="1"/>
<feColorMatrix type="matrix" values="0 0 0 0 0 0 0 0 0 0 0 0 0 0 0 0 0 0 0.25 0"/>
<feBlend mode="normal" in2="shape" result="effect1_innerShadow_135_524"/>
</filter>
<linearGradient id="paint0_linear_135_524" x1="0.0334473" y1="14.2227" x2="24.8726" y2="14.2227" gradientUnits="userSpaceOnUse">
<stop stop-color="#00E6AE"/>
<stop offset="1" stop-color="#00CC9B"/>
</linearGradient>
</defs>
</svg>

<svg xmlns="http://www.w3.org/2000/svg" width="25" height="29" fill="none"><g filter="url(#a)"><path fill="url(#b)" d="m2.106 22.668 8.507 4.68a4 4 0 0 0 3.88-.014l8.332-4.66a4 4 0 0 0 2.048-3.491v-9.92a4 4 0 0 0-2.048-3.491l-8.331-4.66a4 4 0 0 0-3.88-.014l-8.508 4.68A4 4 0 0 0 .033 9.281v9.881a4 4 0 0 0 2.073 3.505Z"/></g><path fill="#0D0D0D" d="M18.34 14.23c0 3.027-2.473 5.48-5.523 5.48a5.532 5.532 0 0 1-2.67-.682L7.089 20l.997-2.94a5.423 5.423 0 0 1-.792-2.83c0-3.027 2.472-5.48 5.523-5.48 3.05 0 5.522 2.454 5.522 5.48Zm-5.523-4.607c-2.56 0-4.644 2.067-4.644 4.607 0 1.008.329 1.942.885 2.701l-.58 1.711 1.784-.567a4.64 4.64 0 0 0 2.555.762c2.56 0 4.643-2.066 4.643-4.607 0-2.54-2.083-4.607-4.643-4.607Zm2.788 5.87c-.034-.057-.124-.09-.259-.158a22.925 22.925 0 0 0-.925-.436c-.124-.045-.215-.068-.305.067-.09.134-.35.437-.428.526-.08.09-.158.101-.294.034-.135-.067-.571-.209-1.088-.666a4.05 4.05 0 0 1-.753-.93c-.08-.135-.009-.208.059-.274.06-.06.135-.157.203-.236.068-.078.09-.134.135-.224.046-.09.023-.168-.011-.235-.034-.067-.305-.728-.418-.997-.112-.27-.225-.224-.304-.224-.079 0-.17-.012-.26-.012a.5.5 0 0 0-.36.168c-.125.135-.474.46-.474 1.12 0 .662.485 1.3.553 1.39.067.09.936 1.49 2.312 2.028 1.376.537 1.376.358 1.625.335.248-.022.8-.324.914-.638.112-.314.112-.583.079-.639Z"/><defs><linearGradient id="b" x1=".033" x2="24.873" y1="14.223" y2="14.223" gradientUnits="userSpaceOnUse"><stop stop-color="#00E6AE"/><stop offset="1" stop-color="#00CC9B"/></linearGradient><filter id="a" width="25.257" height="27.657" x=".033" y=".603" color-interpolation-filters="sRGB" filterUnits="userSpaceOnUse"><feFlood flood-opacity="0" result="BackgroundImageFix"/><feBlend in="SourceGraphic" in2="BackgroundImageFix" result="shape"/><feColorMatrix in="SourceAlpha" result="hardAlpha" values="0 0 0 0 0 0 0 0 0 0 0 0 0 0 0 0 0 0 127 0"/><feOffset dx=".417" dy=".417"/><feGaussianBlur stdDeviation=".626"/><feComposite in2="hardAlpha" k2="-1" k3="1" operator="arithmetic"/><feColorMatrix values="0 0 0 0 0 0 0 0 0 0 0 0 0 0 0 0 0 0 0.25 0"/><feBlend in2="shape" result="effect1_innerShadow_135_524"/></filter></defs></svg>
